cmd/conneroh/_static/dist/svg/codesandbox.svg

<svg height="18" viewBox="0 0 18 18" width="18" xmlns="http://www.w3.org/2000/svg"><g fill="none" stroke="#fff" stroke-linecap="round" stroke-linejoin="round" stroke-width="2" transform="scale(.75)"><path d="m21 16v-8c0-.713542-.380208-1.375-1-1.729167l-7-4c-.619792-.359375-1.380208-.359375-2 0l-7 4c-.619792.354167-1 1.015625-1 1.729167v8c0 .713542.380208 1.375 1 1.729167l7 4c.619792.359375 1.380208.359375 2 0l7-4c.619792-.354167 1-1.015625 1-1.729167"/><path d="m7.5 4.208333 4.5 2.604167 4.5-2.604167m-9 15.583334v-5.192709l-4.5-2.598958m18 0-4.5 2.598958v5.192709m-13.229167-12.833334 8.729167 5.052084 8.729167-5.052084m-8.729167 15.119792v-10.078125"/></g></svg>

<svg xmlns="http://www.w3.org/2000/svg" width="24" height="24" fill="none" stroke="white" stroke-linecap="round" stroke-linejoin="round" stroke-width="2">
    <path d="M21 16V8a2 2 0 0 0-1-1.73l-7-4a2 2 0 0 0-2 0l-7 4A2 2 0 0 0 3 8v8a2 2 0 0 0 1 1.73l7 4a2 2 0 0 0 2 0l7-4A2 2 0 0 0 21 16"/>
    <path d="m7.5 4.21 4.5 2.6 4.5-2.6m-9 15.58V14.6L3 12m18 0-4.5 2.6v5.19M3.27 6.96 12 12.01l8.73-5.05M12 22.08V12"/>
</svg>
